common/src/main/resources/icons/actions/rebuild.svg

<svg xmlns="http://www.w3.org/2000/svg" width="16" height="16" data-big="true" viewBox="0 0 24 24"><path fill="#EC407A" d="m16 5 3 3-.5.5c1 1 1.5 1.5 2 1L22 11c0 1-1.5 2.5-2.5 2.5L18 12c.5-.5 0-1-1-2l-1 1-3-3c1.5-2 0-4-4-3 1-1 2-2 3-2 .5 0 2 0 4 2M2 20l2 2 10-10-2-2z"/><path fill="#4DB6AC" d="M17.25 12a5.96 5.96 0 0 1 4.237 1.748 5.99 5.99 0 0 1-.007 8.482c-1.372 1.395-3.255 1.95-5.047 1.71l.397-1.47a4.498 4.498 0 0 0 3.6-7.657 4.47 4.47 0 0 0-3.18-1.313v3.435l-3.72-3.712 3.72-3.713zm-4.245 10.237a5.99 5.99 0 0 1-.923-7.282l1.11 1.103a4.465 4.465 0 0 0 .87 5.115c.39.39.84.697 1.313.915L15 23.55c-.75-.3-1.41-.728-1.995-1.313"/></svg>

<!--
  - The MIT License (MIT)
  -
  - Copyright (c) 2015-2024 Elior "Mallowigi" Boukhobza
  -
  - Permission is hereby granted, free of charge, to any person obtaining a copy
  - of this software and associated documentation files (the "Software"), to deal
  - in the Software without restriction, including without limitation the rights
  - to use, copy, modify, merge, publish, distribute, sublicense, and/or sell
  - copies of the Software, and to permit persons to whom the Software is
  - furnished to do so, subject to the following conditions:
  -
  - The above copyright notice and this permission notice shall be included in all
  - copies or substantial portions of the Software.
  -
  - THE SOFTWARE IS PROVIDED "AS IS", WITHOUT WARRANTY OF ANY KIND, EXPRESS OR
  - IMPLIED, INCLUDING BUT NOT LIMITED TO THE WARRANTIES OF MERCHANTABILITY,
  - FITNESS FOR A PARTICULAR PURPOSE AND NONINFRINGEMENT. IN NO EVENT SHALL THE
  - AUTHORS OR COPYRIGHT HOLDERS BE LIABLE FOR ANY CLAIM, DAMAGES OR OTHER
  - LIABILITY, WHETHER IN AN ACTION OF CONTRACT, TORT OR OTHERWISE, ARISING FROM,
  - OUT OF OR IN CONNECTION WITH THE SOFTWARE OR THE USE OR OTHER DEALINGS IN THE
  - SOFTWARE.
  -->


<svg data-big="true" xmlns="http://www.w3.org/2000/svg" version="1.1" width="16px" height="16px" viewBox="0 0 24 24">
  <path fill="#EC407A"
        d="M16,5L19,8L18.5,8.5C19.5,9.5 20,10 20.5,9.5L22,11C22,12 20.5,13.5 19.5,13.5L18,12C18.5,11.5 18,11 17,10L16,11L13,8C14.5,6 13,4 9,5C10,4 11,3 12,3C12.5,3 14,3 16,5M2,20L4,22L14,12L12,10L2,20Z"/>
  <path fill="#4DB6AC" transform="scale(0.75) translate(12 12)"
        d="M11,4C13.05,4 15.09,4.77 16.65,6.33C19.78,9.46 19.77,14.5 16.64,17.64C14.81,19.5 12.3,20.24 9.91,19.92L10.44,17.96C12.15,18.12 13.93,17.54 15.24,16.23C17.58,13.89 17.58,10.09 15.24,7.75C14.06,6.57 12.53,6 11,6V10.58L6.04,5.63L11,0.68V4M5.34,17.65C2.7,15 2.3,11 4.11,7.94L5.59,9.41C4.5,11.64 4.91,14.39 6.75,16.23C7.27,16.75 7.87,17.16 8.5,17.45L8,19.4C7,19 6.12,18.43 5.34,17.65Z"/>
</svg>
